img/ready.svg

<svg width="175" height="32" viewBox="0 0 175 32" fill="none" xmlns="http://www.w3.org/2000/svg">
<rect opacity="0.1" width="175" height="32" rx="16" fill="#36B37E"/>
<path d="M22.7253 15.0527L22.3494 16.9941H24.1951V18.1426H22.1238L21.5769 21H20.3601L20.907 18.1426H19.2117L18.6648 21H17.4753L17.9949 18.1426H16.2859V16.9941H18.2205L18.6101 15.0527H16.8054V13.9043H18.8083L19.3552 11.0195H20.5857L20.0388 13.9043H21.7615L22.3083 11.0195H23.4978L22.9509 13.9043H24.6736V15.0527H22.7253ZM19.4236 16.9941H21.1326L21.5222 15.0527H19.8132L19.4236 16.9941ZM31.6052 15.6543H32.74C33.5011 15.6543 34.0525 15.513 34.3943 15.2305C34.7361 14.9479 34.907 14.5286 34.907 13.9727C34.907 13.4076 34.7224 13.002 34.3533 12.7559C33.9841 12.5098 33.4281 12.3867 32.6853 12.3867H31.6052V15.6543ZM31.6052 17.0078V21H29.9714V11.0059H32.7947C34.0844 11.0059 35.0391 11.2474 35.6589 11.7305C36.2787 12.2135 36.5886 12.9427 36.5886 13.918C36.5886 15.1621 35.9415 16.0485 34.6472 16.5771L37.4705 21H35.6111L33.2185 17.0078H31.6052ZM44.5798 21H38.9265V11.0059H44.5798V12.3867H40.5603V15.1074H44.3269V16.4746H40.5603V19.6123H44.5798V21ZM52.947 21L51.949 18.2246H48.1277L47.1501 21H45.4275L49.1667 10.9648H50.9441L54.6833 21H52.947ZM51.5183 16.8164L50.5818 14.0957C50.5134 13.9134 50.4177 13.6263 50.2947 13.2344C50.1762 12.8424 50.0942 12.5553 50.0486 12.373C49.9255 12.9336 49.7455 13.5465 49.5085 14.2119L48.6062 16.8164H51.5183ZM64.1306 15.9072C64.1306 17.557 63.6726 18.8193 62.7566 19.6943C61.8406 20.5648 60.5212 21 58.7986 21H56.0027V11.0059H59.0925C60.683 11.0059 61.9203 11.4342 62.8044 12.291C63.6886 13.1478 64.1306 14.3532 64.1306 15.9072ZM62.408 15.9619C62.408 13.5693 61.2891 12.373 59.0515 12.373H57.6365V19.626H58.7986C61.2048 19.626 62.408 18.4046 62.408 15.9619ZM69.1072 15.5654L71.4724 11.0059H73.2498L69.9207 17.124V21H68.28V17.1787L64.9646 11.0059H66.7419L69.1072 15.5654ZM81.658 21H80.0242V12.4072H77.0847V11.0059H84.5974V12.4072H81.658V21ZM95.0085 15.9893C95.0085 17.6162 94.6007 18.8809 93.7849 19.7832C92.9737 20.6855 91.823 21.1367 90.3328 21.1367C88.8243 21.1367 87.6645 20.6901 86.8533 19.7969C86.0466 18.8991 85.6433 17.6253 85.6433 15.9756C85.6433 14.3258 86.0489 13.0589 86.8601 12.1748C87.6759 11.2907 88.838 10.8486 90.3464 10.8486C91.8321 10.8486 92.9806 11.2975 93.7917 12.1953C94.6029 13.0931 95.0085 14.3577 95.0085 15.9893ZM87.3796 15.9893C87.3796 17.2197 87.628 18.154 88.1248 18.792C88.6215 19.4255 89.3575 19.7422 90.3328 19.7422C91.3035 19.7422 92.0349 19.4277 92.5271 18.7988C93.0238 18.1699 93.2722 17.2334 93.2722 15.9893C93.2722 14.7633 93.0261 13.8337 92.5339 13.2002C92.0463 12.5667 91.3171 12.25 90.3464 12.25C89.3666 12.25 88.6261 12.5667 88.1248 13.2002C87.628 13.8337 87.3796 14.7633 87.3796 15.9893ZM100.792 11.0059H103.759C105.135 11.0059 106.128 11.2064 106.739 11.6074C107.354 12.0085 107.662 12.6419 107.662 13.5078C107.662 14.0911 107.511 14.5765 107.211 14.9639C106.91 15.3512 106.477 15.5951 105.912 15.6953V15.7637C106.614 15.8958 107.129 16.1579 107.457 16.5498C107.789 16.9372 107.956 17.4635 107.956 18.1289C107.956 19.0267 107.641 19.7308 107.012 20.2412C106.388 20.7471 105.518 21 104.401 21H100.792V11.0059ZM102.426 15.1348H103.998C104.681 15.1348 105.18 15.0277 105.495 14.8135C105.809 14.5947 105.967 14.2256 105.967 13.7061C105.967 13.2367 105.796 12.8971 105.454 12.6875C105.117 12.4779 104.579 12.373 103.841 12.373H102.426V15.1348ZM102.426 16.4609V19.626H104.162C104.845 19.626 105.36 19.4961 105.707 19.2363C106.058 18.972 106.233 18.5573 106.233 17.9922C106.233 17.4727 106.055 17.0876 105.7 16.8369C105.344 16.5863 104.804 16.4609 104.08 16.4609H102.426ZM115.687 21H110.034V11.0059H115.687V12.3867H111.668V15.1074H115.434V16.4746H111.668V19.6123H115.687V21ZM125.743 12.2637C124.804 12.2637 124.066 12.5964 123.528 13.2617C122.99 13.9271 122.721 14.8454 122.721 16.0166C122.721 17.2425 122.979 18.1699 123.494 18.7988C124.013 19.4277 124.763 19.7422 125.743 19.7422C126.167 19.7422 126.577 19.7012 126.973 19.6191C127.37 19.5326 127.782 19.4232 128.211 19.291V20.6924C127.427 20.9886 126.538 21.1367 125.545 21.1367C124.082 21.1367 122.958 20.6947 122.175 19.8105C121.391 18.9219 120.999 17.6527 120.999 16.0029C120.999 14.9639 121.188 14.0547 121.566 13.2754C121.949 12.4961 122.5 11.8991 123.22 11.4844C123.941 11.0697 124.786 10.8623 125.757 10.8623C126.777 10.8623 127.721 11.0765 128.587 11.5049L127.999 12.8652C127.662 12.7057 127.304 12.5667 126.926 12.4482C126.552 12.3252 126.158 12.2637 125.743 12.2637ZM139.237 15.9893C139.237 17.6162 138.829 18.8809 138.013 19.7832C137.202 20.6855 136.052 21.1367 134.561 21.1367C133.053 21.1367 131.893 20.6901 131.082 19.7969C130.275 18.8991 129.872 17.6253 129.872 15.9756C129.872 14.3258 130.277 13.0589 131.089 12.1748C131.904 11.2907 133.066 10.8486 134.575 10.8486C136.061 10.8486 137.209 11.2975 138.02 12.1953C138.831 13.0931 139.237 14.3577 139.237 15.9893ZM131.608 15.9893C131.608 17.2197 131.857 18.154 132.353 18.792C132.85 19.4255 133.586 19.7422 134.561 19.7422C135.532 19.7422 136.263 19.4277 136.756 18.7988C137.252 18.1699 137.501 17.2334 137.501 15.9893C137.501 14.7633 137.255 13.8337 136.762 13.2002C136.275 12.5667 135.546 12.25 134.575 12.25C133.595 12.25 132.855 12.5667 132.353 13.2002C131.857 13.8337 131.608 14.7633 131.608 15.9893ZM150.257 15.9893C150.257 17.6162 149.849 18.8809 149.033 19.7832C148.222 20.6855 147.071 21.1367 145.581 21.1367C144.072 21.1367 142.913 20.6901 142.101 19.7969C141.295 18.8991 140.891 17.6253 140.891 15.9756C140.891 14.3258 141.297 13.0589 142.108 12.1748C142.924 11.2907 144.086 10.8486 145.594 10.8486C147.08 10.8486 148.229 11.2975 149.04 12.1953C149.851 13.0931 150.257 14.3577 150.257 15.9893ZM142.628 15.9893C142.628 17.2197 142.876 18.154 143.373 18.792C143.87 19.4255 144.606 19.7422 145.581 19.7422C146.552 19.7422 147.283 19.4277 147.775 18.7988C148.272 18.1699 148.52 17.2334 148.52 15.9893C148.52 14.7633 148.274 13.8337 147.782 13.2002C147.294 12.5667 146.565 12.25 145.594 12.25C144.615 12.25 143.874 12.5667 143.373 13.2002C142.876 13.8337 142.628 14.7633 142.628 15.9893ZM152.403 21V11.0059H154.037V19.5986H158.268V21H152.403Z" fill="#36B37E"/>
</svg>

<svg width="175" height="32" fill="none" xmlns="http://www.w3.org/2000/svg"><rect opacity=".1" width="175" height="32" rx="16" fill="#36B37E"/><path d="M22.725 15.053l-.376 1.941h1.846v1.149h-2.071L21.577 21H20.36l.547-2.857h-1.695L18.665 21h-1.19l.52-2.857h-1.71v-1.149h1.936l.39-1.941h-1.806v-1.149h2.003l.547-2.884h1.23l-.546 2.884h1.723l.546-2.884h1.19l-.547 2.884h1.723v1.149h-1.949zm-3.301 1.941h1.709l.39-1.941h-1.71l-.39 1.941zm12.181-1.34h1.135c.761 0 1.313-.141 1.654-.424.342-.282.513-.701.513-1.257 0-.565-.185-.971-.554-1.217-.369-.246-.925-.37-1.668-.37h-1.08v3.268zm0 1.354V21h-1.634v-9.994h2.824c1.29 0 2.244.241 2.864.724.62.483.93 1.213.93 2.188 0 1.244-.648 2.13-1.942 2.66L37.471 21h-1.86l-2.392-3.992h-1.614zM44.58 21h-5.654v-9.994h5.654v1.38h-4.02v2.721h3.767v1.368H40.56v3.137h4.02V21zm8.367 0l-.998-2.775h-3.821L47.15 21h-1.722l3.739-10.035h1.777L54.684 21h-1.737zm-1.429-4.184l-.936-2.72a20.685 20.685 0 01-.533-1.723c-.123.56-.303 1.174-.54 1.839l-.903 2.604h2.912zm12.613-.909c0 1.65-.458 2.912-1.374 3.787-.916.87-2.236 1.306-3.958 1.306h-2.796v-9.994h3.09c1.59 0 2.827.428 3.711 1.285.885.857 1.327 2.062 1.327 3.616zm-1.723.055c0-2.393-1.119-3.589-3.357-3.589h-1.415v7.253H58.8c2.406 0 3.609-1.221 3.609-3.664zm6.7-.397l2.364-4.56h1.778l-3.33 6.119V21h-1.64v-3.821l-3.315-6.173h1.777l2.365 4.56zM81.657 21h-1.634v-8.593h-2.94v-1.401h7.513v1.401h-2.939V21zm13.35-5.01c0 1.626-.407 2.89-1.223 3.793-.811.902-1.962 1.354-3.452 1.354-1.509 0-2.668-.447-3.48-1.34-.806-.898-1.21-2.172-1.21-3.821 0-1.65.406-2.917 1.217-3.801.816-.884 1.978-1.326 3.486-1.326 1.486 0 2.635.448 3.446 1.346.81.898 1.216 2.163 1.216 3.794zm-7.628 0c0 1.23.248 2.164.745 2.802.496.633 1.233.95 2.208.95.97 0 1.702-.314 2.194-.943.497-.63.745-1.566.745-2.81 0-1.226-.246-2.155-.738-2.789-.488-.633-1.217-.95-2.188-.95-.98 0-1.72.317-2.221.95-.497.634-.745 1.563-.745 2.79zm13.412-4.984h2.967c1.376 0 2.369.2 2.98.601.615.402.923 1.035.923 1.9 0 .584-.151 1.07-.451 1.457-.301.387-.734.631-1.299.731v.069c.702.132 1.217.394 1.545.786.332.387.499.913.499 1.579 0 .898-.315 1.602-.944 2.112-.624.506-1.494.759-2.611.759h-3.609v-9.994zm1.634 4.129h1.572c.683 0 1.182-.107 1.497-.322.314-.218.472-.587.472-1.107 0-.47-.171-.809-.513-1.018-.337-.21-.875-.315-1.613-.315h-1.415v2.762zm0 1.326v3.165h1.736c.683 0 1.198-.13 1.545-.39.351-.264.526-.679.526-1.244 0-.52-.178-.904-.533-1.155-.356-.25-.896-.376-1.62-.376h-1.654zM115.687 21h-5.653v-9.994h5.653v1.38h-4.019v2.721h3.766v1.368h-3.766v3.137h4.019V21zm10.056-8.736c-.939 0-1.677.332-2.215.998-.538.665-.807 1.583-.807 2.755 0 1.226.258 2.153.773 2.782.519.629 1.269.943 2.249.943.424 0 .834-.04 1.23-.123.397-.086.809-.196 1.238-.328v1.401c-.784.297-1.673.445-2.666.445-1.463 0-2.587-.442-3.37-1.326-.784-.89-1.176-2.158-1.176-3.808 0-1.04.189-1.948.567-2.728a4.095 4.095 0 011.654-1.79c.721-.415 1.566-.623 2.537-.623 1.02 0 1.964.214 2.83.643l-.588 1.36a8.332 8.332 0 00-1.073-.417 3.76 3.76 0 00-1.183-.184zm13.494 3.725c0 1.627-.408 2.892-1.224 3.794-.811.902-1.961 1.354-3.452 1.354-1.508 0-2.668-.447-3.479-1.34-.807-.898-1.21-2.172-1.21-3.821 0-1.65.405-2.917 1.217-3.801.815-.884 1.977-1.326 3.486-1.326 1.486 0 2.634.448 3.445 1.346.811.898 1.217 2.163 1.217 3.794zm-7.629 0c0 1.23.249 2.165.745 2.803.497.633 1.233.95 2.208.95.971 0 1.702-.314 2.195-.943.496-.63.745-1.566.745-2.81 0-1.226-.246-2.155-.739-2.789-.487-.633-1.216-.95-2.187-.95-.98 0-1.72.317-2.222.95-.496.634-.745 1.563-.745 2.79zm18.649 0c0 1.627-.408 2.892-1.224 3.794-.811.902-1.962 1.354-3.452 1.354-1.509 0-2.668-.447-3.48-1.34-.806-.898-1.21-2.172-1.21-3.821 0-1.65.406-2.917 1.217-3.801.816-.884 1.978-1.326 3.486-1.326 1.486 0 2.635.448 3.446 1.346.811.898 1.217 2.163 1.217 3.794zm-7.629 0c0 1.23.248 2.165.745 2.803.497.633 1.233.95 2.208.95.971 0 1.702-.314 2.194-.943.497-.63.745-1.566.745-2.81 0-1.226-.246-2.155-.738-2.789-.488-.633-1.217-.95-2.188-.95-.979 0-1.72.317-2.221.95-.497.634-.745 1.563-.745 2.79zM152.403 21v-9.994h1.634v8.593h4.231V21h-5.865z" fill="#36B37E"/></svg>
